svgs/dailydozen.svg

<svg xmlns="http://www.w3.org/2000/svg" viewBox="0 0 192 192"><path fill="none" stroke="#000" stroke-linecap="round" stroke-linejoin="round" stroke-width="12" d="M45.895 175.5a8.087 8.087 0 0 0 4.57-1.415 8.031 8.031 0 0 0 2.958-3.746l56.055-146.097a12.05 12.05 0 0 1 4.438-5.619 12.119 12.119 0 0 1 6.854-2.123h40.697a8.086 8.086 0 0 0-4.569 1.415 8.031 8.031 0 0 0-2.958 3.746L97.885 167.758a12.05 12.05 0 0 1-4.438 5.619 12.119 12.119 0 0 1-6.854 2.123H45.895"/><path fill="none" stroke="#000" stroke-linecap="round" stroke-linejoin="round" stroke-width="12" d="m67.236 134.339-8.131-78.41a4.064 4.064 0 0 0-1.076-2.36 4.107 4.107 0 0 0-4.861-.85 4.08 4.08 0 0 0-1.819 1.854L32.173 94.068a16.251 16.251 0 0 0-1.588 8.305l4.858 65.279a8.146 8.146 0 0 0 2.502 5.567 8.206 8.206 0 0 0 5.679 2.281h2.271"/></svg>

<svg
    xmlns="http://www.w3.org/2000/svg"
    viewBox="0 0 192 192"
    id="vector">
    <path
        id="path"
        d="M 45.895 175.5 C 47.527 175.5 49.121 175.006 50.465 174.085 C 51.809 173.163 52.841 171.857 53.423 170.339 L 109.478 24.242 C 110.352 21.965 111.9 20.005 113.916 18.623 C 115.932 17.24 118.323 16.5 120.77 16.5 L 161.467 16.5 C 159.836 16.5 158.242 16.994 156.898 17.915 C 155.554 18.837 154.522 20.143 153.94 21.661 L 97.885 167.758 C 97.011 170.035 95.463 171.995 93.447 173.377 C 91.431 174.76 89.04 175.5 86.593 175.5 L 45.895 175.5"
        fill="none"
        stroke="#000000"
        stroke-width="12"
        stroke-linecap="round"
        stroke-linejoin="round"/>
    <path
        id="path_1"
        d="M 67.236 134.339 L 59.105 55.929 C 59.014 55.046 58.636 54.218 58.029 53.569 C 57.422 52.92 56.619 52.485 55.742 52.332 C 54.864 52.179 53.961 52.314 53.168 52.719 C 52.375 53.123 51.737 53.774 51.349 54.573 L 32.173 94.068 C 30.92 96.649 30.372 99.514 30.585 102.373 L 35.443 167.652 C 35.523 169.759 36.42 171.756 37.945 173.219 C 39.47 174.682 41.507 175.5 43.624 175.5 L 45.895 175.5"
        fill="none"
        stroke="#000000"
        stroke-width="12"
        stroke-linecap="round"
        stroke-linejoin="round"/>
</svg>
